my-app/src/app/media/linkedin_logo.svg

<svg width="17" height="16" viewBox="0 0 17 16" fill="none" xmlns="http://www.w3.org/2000/svg">
<g clip-path="url(#clip0_9671_2240)">
<path d="M3.66199 15.7373V5.61683H0.231683V15.7373H3.66199ZM1.94728 4.23422C3.14348 4.23422 3.88807 3.45709 3.88807 2.48593C3.86578 1.49287 3.14353 0.737305 1.96998 0.737305C0.796609 0.737305 0.0292969 1.49288 0.0292969 2.48593C0.0292969 3.45713 0.773695 4.23422 1.92488 4.23422H1.94717H1.94728ZM5.56065 15.7373H8.99095V10.0855C8.99095 9.78307 9.01324 9.48091 9.10382 9.26468C9.35181 8.66035 9.91623 8.03443 10.8638 8.03443C12.1051 8.03443 12.6017 8.96251 12.6017 10.323V15.7372H16.0318V9.93425C16.0318 6.82564 14.3394 5.37923 12.0825 5.37923C10.232 5.37923 9.41951 6.39356 8.96813 7.08442H8.99102V5.61662H5.56072C5.60574 6.56627 5.56072 15.7371 5.56072 15.7371L5.56065 15.7373Z" fill="white"/>
</g>
<defs>
<clipPath id="clip0_9671_2240">
<rect width="16" height="15" fill="white" transform="translate(0.0292969 0.737305)"/>
</clipPath>
</defs>
</svg>

<svg xmlns="http://www.w3.org/2000/svg" width="17" height="16" fill="none"><g clip-path="url(#a)"><path fill="#fff" d="M3.662 15.737V5.617H.232v10.12zM1.947 4.234c1.196 0 1.941-.777 1.941-1.748C3.866 1.493 3.144.737 1.97.737S.03 1.493.03 2.486c0 .971.744 1.748 1.895 1.748zm3.614 11.503h3.43v-5.651c0-.303.022-.605.113-.821.248-.605.812-1.23 1.76-1.23 1.241 0 1.738.928 1.738 2.288v5.414h3.43V9.934c0-3.108-1.693-4.555-3.95-4.555-1.85 0-2.662 1.015-3.114 1.705h.023V5.617h-3.43c.045.95 0 10.12 0 10.12"/></g><defs><clipPath id="a"><path fill="#fff" d="M.03.737h16v15h-16z"/></clipPath></defs></svg>
